src/symbolic/categories/preferences-desktop-keyboard-symbolic.svg

<?xml version="1.0" encoding="UTF-8" standalone="no"?>
<svg
   xmlns:dc="http://purl.org/dc/elements/1.1/"
   xmlns:cc="http://creativecommons.org/ns#"
   xmlns:rdf="http://www.w3.org/1999/02/22-rdf-syntax-ns#"
   xmlns:svg="http://www.w3.org/2000/svg"
   xmlns="http://www.w3.org/2000/svg"
   id="svg6"
   version="1.1"
   width="16"
   height="16">
  <metadata
     id="metadata12">
    <rdf:RDF>
      <cc:Work
         rdf:about="">
        <dc:format>image/svg+xml</dc:format>
        <dc:type
           rdf:resource="http://purl.org/dc/dcmitype/StillImage" />
        <dc:title></dc:title>
      </cc:Work>
    </rdf:RDF>
  </metadata>
  <defs
     id="defs10" />
  <g
     id="g41">
    <path
       id="path2"
       d="M 3 1 C 1.892 1 1 1.892 1 3 L 1 13 C 1 14.108 1.892 15 3 15 L 13 15 C 14.108 15 15 14.108 15 13 L 15 3 C 15 1.892 14.108 1 13 1 L 3 1 z M 3 2 L 13 2 C 13.554 2 14 2.446 14 3 L 14 12 C 14 12.554 13.554 13 13 13 L 3 13 C 2.446 13 2 12.554 2 12 L 2 3 C 2 2.446 2.446 2 3 2 z M 9.9609375 3.1152344 C 9.28125 3.1152344 8.6796875 3.2649739 8.15625 3.5644531 C 7.6354167 3.8613281 7.233073 4.2727865 6.9492188 4.7988281 C 6.6679688 5.3222656 6.5273438 5.9055989 6.5273438 6.5488281 C 6.5273437 7.4759115 6.8033854 8.1998698 7.3554688 8.7207031 C 7.9101563 9.2415365 8.6822917 9.5019531 9.671875 9.5019531 C 10.351563 9.5019531 10.970052 9.3834636 11.527344 9.1464844 L 11.527344 8.3964844 C 11.207032 8.5136719 10.881511 8.6035156 10.550781 8.6660156 C 10.220052 8.7259116 9.9166665 8.7558594 9.640625 8.7558594 C 8.9114583 8.7558594 8.3541667 8.5644531 7.96875 8.1816406 C 7.5859375 7.796224 7.3945312 7.2441406 7.3945312 6.5253906 C 7.3945313 5.9915364 7.4973958 5.5214844 7.703125 5.1152344 C 7.9114583 4.7063802 8.2096355 4.3938802 8.5976562 4.1777344 C 8.9856771 3.9615886 9.4427083 3.8535156 9.96875 3.8535156 C 10.375 3.8535156 10.735677 3.9381511 11.050781 4.1074219 C 11.368489 4.2766927 11.61458 4.5227866 11.789062 4.8457031 C 11.963542 5.1660156 12.050781 5.5358073 12.050781 5.9550781 C 12.050781 6.3483073 12.001302 6.6673177 11.902344 6.9121094 C 11.803386 7.1542969 11.670573 7.2753906 11.503906 7.2753906 C 11.30599 7.2753906 11.207031 7.0944011 11.207031 6.7324219 L 11.296875 4.8222656 C 11.122396 4.7623698 10.89974 4.7115885 10.628906 4.6699219 C 10.360677 4.6256512 10.114583 4.6035156 9.890625 4.6035156 C 9.328125 4.6035156 8.8723958 4.7714844 8.5234375 5.1074219 C 8.1744792 5.4433594 8 5.8860677 8 6.4355469 C 8 6.9173177 8.1328125 7.2975261 8.3984375 7.5761719 C 8.6640625 7.8522135 9.0273438 7.9902344 9.4882812 7.9902344 C 9.9231773 7.9902344 10.28125 7.8222656 10.5625 7.4863281 L 10.625 7.4863281 C 10.690104 7.6373698 10.796875 7.7597656 10.945312 7.8535156 C 11.09375 7.9446614 11.264323 7.9902344 11.457031 7.9902344 C 11.746094 7.9902344 12 7.9016927 12.21875 7.7246094 C 12.4375 7.547526 12.606771 7.3040364 12.726562 6.9941406 C 12.846354 6.6816406 12.90625 6.3378906 12.90625 5.9628906 C 12.90625 5.3977862 12.783855 4.8990885 12.539062 4.4667969 C 12.294271 4.0345052 11.946615 3.7011719 11.496094 3.4667969 C 11.045573 3.2324219 10.533854 3.1152344 9.9609375 3.1152344 z M 9.9375 5.3144531 C 10.104167 5.3144531 10.253907 5.3287759 10.386719 5.3574219 L 10.335938 6.2207031 C 10.309896 6.5930989 10.235677 6.8626302 10.113281 7.0292969 C 9.9908854 7.1933594 9.8125 7.2753906 9.578125 7.2753906 C 9.1302083 7.2753906 8.90625 7.0006511 8.90625 6.4511719 C 8.90625 6.0996094 8.9960938 5.8222656 9.1757812 5.6191406 C 9.3580729 5.4160156 9.6119791 5.3144531 9.9375 5.3144531 z "
       style="opacity:1;marker:none;fill:#666666;fill-opacity:1" />
    <g
       transform="matrix(0.69230769,0,0,0.69230769,-17.293857,-2.6807294)"
       id="text4643-5-8-9-9-3-6-3"
       style="font-style:normal;font-variant:normal;font-weight:normal;font-stretch:normal;font-size:12.80800533px;line-height:125%;font-family:'Open Sans';-inkscape-font-specification:'Open Sans';text-align:start;letter-spacing:0px;word-spacing:0px;writing-mode:lr-tb;text-anchor:start;display:inline;opacity:0.7;fill:#555761;fill-opacity:1;stroke:none;stroke-width:1.44444442" />
  </g>
</svg>

<svg xmlns="http://www.w3.org/2000/svg" width="16" height="16"><path d="M3 1c-1.108 0-2 .892-2 2v10c0 1.108.892 2 2 2h10c1.108 0 2-.892 2-2V3c0-1.108-.892-2-2-2H3zm0 1h10c.554 0 1 .446 1 1v9c0 .554-.446 1-1 1H3c-.554 0-1-.446-1-1V3c0-.554.446-1 1-1zm6.96 1.115c-.679 0-1.28.15-1.804.45-.52.296-.923.708-1.207 1.234a3.638 3.638 0 0 0-.422 1.75c0 .927.276 1.65.828 2.172.555.52 1.327.781 2.317.781.68 0 1.298-.119 1.855-.356v-.75c-.32.118-.645.208-.976.27-.33.06-.634.09-.91.09-.73 0-1.287-.192-1.672-.574-.383-.386-.574-.938-.574-1.657 0-.533.102-1.004.308-1.41.208-.409.507-.721.895-.937.388-.216.845-.324 1.37-.324.407 0 .768.084 1.083.253.317.17.564.416.738.739.175.32.262.69.262 1.11 0 .392-.05.711-.149.956-.099.242-.231.363-.398.363-.198 0-.297-.18-.297-.543l.09-1.91a3.96 3.96 0 0 0-.668-.152 4.561 4.561 0 0 0-.738-.066c-.563 0-1.019.167-1.368.503-.349.336-.523.78-.523 1.329 0 .481.133.862.398 1.14.266.276.63.414 1.09.414a1.34 1.34 0 0 0 1.075-.504h.062a.806.806 0 0 0 .32.368.958.958 0 0 0 .512.136c.29 0 .543-.088.762-.265.219-.177.388-.421.508-.73.12-.313.18-.657.18-1.032 0-.565-.123-1.064-.368-1.496a2.493 2.493 0 0 0-1.043-1c-.45-.235-.962-.352-1.535-.352zm-.023 2.2c.167 0 .317.014.45.042l-.051.864c-.026.372-.1.642-.223.808-.122.164-.3.246-.535.246-.448 0-.672-.274-.672-.824 0-.351.09-.629.27-.832.182-.203.436-.305.761-.305z" style="marker:none" fill="#5d656b"/></svg>
